X:SSF 13-19 134
T:?
M:4/4
K:G
P:A
GA| BcBA G2E2 G2E2 D4 |1,3 E2G2 B3c B2A2-A2 :|2,4 E2G2 B4 A2G2-G2 :|
P:B
GA| Bd2B d3g edBc d2d2 |1,3 g4 g3d e2d2-d2 :|2,4 B3d BAGB A2G2-G2 :|

